X:1
T:Title
%%score { 1 | ( 2 3 ) }
L:1/8
M:4/4
K:Eb
V:1 treble nm="Grand Piano"
V:2 bass 
V:3 bass 
V:1
 z4 z2[Q:1/4=100] [EG][FA] | [GB]2 [GB]2 [GB]2 [Ge]>[Ge] | [Ge]4 [GB]2 [Ge]>[Ge] | %3
 [Ad]2 [DAc]2 [DFA]2 [DAc]2 |[M:3/4] [EGB]6 |[M:1/4] [B,GB]>[B,FA] | %6
[M:4/4] [B,EG]2 [B,EG]>[B,EG] [B,EG]2 [B,FA]2 | [EGB]2 [Ge]4 E>F | G2 BA G2 [DF]2 |[M:3/4] E6 | %10
[M:1/4] [GB]>[Ge] |[M:4/4] [Ad]2 [DF]2 [DFA]2 [DAB]>[DAc] | [EGB]2 E2 G2 B>B | %13
 [DB]2 [FA]>[EG] [DF]2 [DB]2 |[M:3/4] [EG]6 |[M:1/4] [EG]>[FA] | %16
[M:9/8] [GB]2 [Ge]- [Ge] [Ge]2- [Ge][GB]>[GB] | c2 e- e e2- eE>F |[M:4/4] G2 BA [B,EG]2 [A,DF]2 | %19
[M:3/4] [G,E]6 |] %20
V:2
 z4 z2 [E,B,]2 | [E,E]2 [E,E]2 [E,E]2 [E,B,]>[E,B,] | [E,B,]4 [E,E]2 [E,B,]>[E,B,] | %3
 [B,,B,]2 B,,2 B,,2 B,,2 |[M:3/4] E,6 |[M:1/4] E,>E, |[M:4/4] E,2 E,>E, E,2 E,2 | %7
 E,2 [E,B,]4 [E,G,]>[E,A,E] | [E,B,E]2[K:treble] [G,B,E][A,CF][K:bass] [B,E]2 [B,,A,]2 | %9
[M:3/4] [E,G,]6 |[M:1/4] [E,B,]>[E,B,] |[M:4/4] [B,,B,]2 [B,,B,]2 B,,2 B,,>B,, | %12
 E,2 [E,G,B,]2 [E,B,E]2 [E,G,E]>[E,G,E] | [B,,F,]2 [B,,B,]>[B,,B,] [B,,B,]2 [B,,B,]2 | %14
[M:3/4] [E,B,]6 |[M:1/4] [E,B,]>[E,B,] |[M:9/8] [E,E]2 [E,B,]- [E,B,] [E,B,]2- [E,B,][E,E]>[E,E] | %17
 [A,EA]2 [A,CA]- [A,CA] [A,CA]2- [A,CA][=A,C]>[A,CE] |[M:4/4] [B,E]2 GF[K:bass] B,,2 B,,2 | %19
[M:3/4] E,6 |] %20
V:3
 x8 | x8 | x8 | x8 |[M:3/4] x6 |[M:1/4] x2 |[M:4/4] x8 | x8 | x2[K:treble] x2[K:bass] x4 | %9
[M:3/4] x6 |[M:1/4] x2 |[M:4/4] x8 | x8 | x8 |[M:3/4] x6 |[M:1/4] x2 |[M:9/8] x9 | x9 | %18
[M:4/4] z2 B,2[K:bass] z4 |[M:3/4] x6 |] %20

